X:1
T:James Gibb editions
T:Populus Sion - Isaac
T:#
%%score [ 1 2 3 4 ]
L:1/8
Q:1/4=100
M:none
K:C
V:1 treble nm="Soprano" snm="S"
V:2 treble nm="Alto" snm="A"
V:3 treble-8 nm="Tenor" snm="T"
V:4 bass nm="Bass" snm="B"
V:1
"^Populus Sion""^Heinrich Isaac\n(c.1450-1517)" (G2 d2 e2) d2 d2 (d2 e2) (e2 d4) || %1
w: Po\- * * pu- lus Si\- * on, *|
[M:2/2] (d4 e4) | (d4 e4) | (A2 d2 c2 B2- | B2 A4 ^G2 | A3 B cd e2- | e2 d4) ^c2 |[M:2/2] d8 | %8
w: Ec\- *|ce *|Do\- * * *|||* * mi-|nus|
 z4 (e4 | d4 c2 e2- | e2 d4) c2 | d4 z2 e2- | e2 d2 (e4 | c4 z2 c2 | c6 (d2- | dc c4 B2) | c4 z4 | %17
w: ve\-||* * ni-|et, ve\-|* ni- et|* ad|sal- van\-||das|
 A4 B2 c2- | cB A4 ^G2) | A4 z4 | A4 (A3 B | c2) (d4 ^c2) | d8 | z8 | z8 | z4 d4- | d2 (d4 cB | %27
w: gen\- * *||tes:|et au\- *|* di\- *|tam|||Do\-|* mi\- * *|
 A3 B c4 | d3 c A2 B2- | BA A4 ^G2) | A4 z2 A2 | (A3 B c4 | F2 A3 GFE | D2 F2 E4) | D4 z2 A2 | %35
w: |||nus glo-|ri\- * *|||am vo-|
 (A3 B c4) | (A3 B c4 | F2 A3 GFE | D2 F2 E4) | D4 z4 | G4 G4 | (A3 B cd e2- | ed d4) ^c2 | d4 z4 | %44
w: cis * *|su\- * *|||ae|in lae-|ti\- * * * *|* * * ti-|a|
 (c4 d4) | (e4 d4) | (d3 c B3 A | c4 B2 A2- | AG G4 ^F2) | G8 || %50
w: cor\- *|dis *|ve\- * * *|||stri.|
 (c2 B2) (c2 d2) d2 d2 d2 (d2 f2) e2 (e2 d2) (d2 e4) ||[M:2/2] d8 | c4 (A2 B2- | BA A4 G2) | A8 | %55
w: Qui * re\- * gis I- sra- el, * in- ten\- * de: *|Qui|de- du\- *||cis,|
 z4 z2 A2 | G2 (c4 B2) | (c2 BA G2 A2 | B4 A2) (G2- | G2 ^FE F4) | G8- | G8 |] %62
w: ve-|lut o\- *|vem, * * * *|* * Jo\-||seph.||
V:2
 x8 x8 x4 ||[M:2/2] G8- | G8 | (F4 E4 | A,4 B,4 | C4 A,4) | z4 A,4- |[M:2/2] A,4 A,4 | (B,4 C4 | %9
w: |Ec\-||ce *|||Do\-|* mi-|nus *|
 D2 B,2 C4) | z4 z2 (C2 | F4 G2 E2) | F4 E4 | z2 E2 (E3 D) | (C2 F,2 C2 B,2 | A,2 F,2) G,4 | %16
w: |ve\-||ni- et|ad sal\- *|van\- * * *|* * das|
 z2 (G3 FED | C2) (D4 CB, | A,4 B,4) | (C3 D) (E2 D2 | E2) F2 D4 | z4 z2 (A,2 | B,2) A,2 (D3 C | %23
w: gen\- * * *|* tes: * *||et * au\- *|* di- tam|fa\-|* ci- et, *|
 A,4) z2 (C2 | A,2 B,2) G,4 | A,8- | A,4 z4 | z4 z2 A,2 | (A,3 B, C2 B,2 | C2 D2 E4) | (C4 D3 E | %31
w: * fa\-|* * ci-|et||Do-|mi\- * * *||nus * *|
 F4 E4 | D4) (E2 F2- | FE D4) ^C2 | D4 z2 F2- | F2 (ED E4 | F4 E4) | z2 (D2 E2 F2- | FE D4 ^C2) | %39
w: |* glo\- *|* * * ri-|am vo\-|* cis * *||su\- * *||
 D6 (F2 | E2 DC B,4) | A,2 (C3 B, G,2 | B,4 A,4) | B,4 A,4 | z8 | z2 (A,2 B,2) (A,2 | D4) z2 (D2 | %47
w: ae in||lae- ti\- * *||ti- a||cor\- * dis|* ve\-|
 G,3 A, B,C D2- | D2 C2 D4) | D8 || z8 z8 z8 z6 ||[M:2/2] (A,4 B,4 | A,4) z2 G,2 | (A,4 B,4) | %54
w: ||stri.||Qui *|* de-|du\- *|
 A,4 z2 A,2 | (B,2 C2 A,2 D2 | G,4) z2 G2 | (E3 F G2 FE | D4 E4) | D8 | D8- | D8 |] %62
w: cis, ve-|lut * * *|* o-|vem, * * * *||Jo-|seph.||
V:3
 x8 x8 x4 ||[M:2/2] z8 | z8 | (d4 e4) | (d4 e4 | A4) z2 A2 | (c2 d2 e4) | %7
w: |||Ec\- *|ce *|* Do-|mi\- * *|
[M:2/2][K:treble-8] d4 z2 (d2 | e3 d c2) A2 | B4 z2 (A2 | c2 d2) e4 | d4 z2 (c2 | A2) B2 c4 | %13
w: nus ve\-|* * * ni-|et, ve\-|* * ni-|et, ve\-|* ni- et|
 z2 c2 (c3 d | e2 f2) e2 d2 | (e2 f2 d4) | c8 | z8 | z8 | A4 (A3 B | c2) (d3 e f2 | e2 d2 e4) | %22
w: ad sal\- *|* * van- das|gen\- * *|tes:|||et au\- *|* di\- * *||
 d4 z4 | (f4 e2 f2- | fe d4) ^c2 | d8 | z4 (d4 | f6 e2 | d4 c2 d2 | c2 A2) B4 | A8- | A8 | A8 | %33
w: tam|fa\- * *|* * * ci-|et|Do\-|||* * mi-|nus|||
 A8 | A8 | A8 | A8 | A8 | A8 | A8 | z2 (G2 GA B2) | (c3 d ef) (g2- | gf d2) e4 | d8 | z2 (e4 d2- | %45
w: |||||||in * * *|lae\- * * * ti\-|* * * ti-|a|cor\- *|
 d2 c2) (d4 | f3 e d3 c) | (e4 d4 | G4 A4) | G8 || z8 z8 z8 z6 ||[M:2/2] (d4 B4) | (c4 d4) | %53
w: * * dis||ve\- *||stri.||Qui *|de\- *|
 d4 d4 | d4 (d4 | e4 f4 | e4 d4) | c4 (c4 | B4 c4 | A8) | G8 | G8 |] %62
w: du- cis,|ve- lut||* o-|vem, Jo\-|||seph.||
V:4
 x8 x8 x4 ||[M:2/2] G,4 (E,2 C,2 | G,4 C,4 | D,4 A,2 G,2 | F,4 E,4) | z2 (F,4 E,D, | %6
w: |Ec- ce *||||Do\- * *|
 C,2) B,,2 (A,,4 |[M:2/2] D,4 F,4 | E,4) z2 (A,2- | A,2 G,2 A,2 C2- | CD B,2 A,4 | %11
w: * mi- nus||* ve\-|||
 D,2 F,2 E,2 C,2) | D,4 C,4- | C,8 | z8 | z8 | z2 (C,2 C,D, E,2 | F,4 G,2 A,2- | A,G, F,2 E,4) | %19
w: |ni- et||||gen\- * * *|||
 (A,,3 B,, C,2 D,2) | A,,2 (D,3 C, D,2 | A,,2 B,,2) A,,4 | D,4 z2 (D,2- | D,E,F,G, A,4 | %24
w: tes: * * *|et au\- * *|* * di-|tam fa\-||
 F,2 G,2) E,4 | D,8 | D,6 G,2 | F,2 (D,2 A,4 | D,4) z2 (G,2 | A,2 F,2) E,4 | (A,,4 D,4) | %31
w: * * ci-|et|Do- mi-|nus, * *|* Do\-|* * mi-|nus *|
 z2 (D,2 A,,2 C,2 | D,4 A,,2 D,2- | D,C, D,2) A,,4 | D,8 | z2 (D,2 A,,2 C,2 | D,4 A,,2 C,2 | %37
w: glo\- * *||* * * ri-|am|vo\- * *||
 D,4) A,,2 (D,2- | D,C, D,2 A,,4) | (D,8 | E,8 | A,,4) z4 | z8 | z2 (D,3 E,F,G, | A,2) C2 B,4 | %45
w: * cis su\-||ae||||in * * *|* lae- ti-|
 A,4 D,4 | z4 D,4 | (C,4 D,4) | (E,4 D,4) | G,,8 || z8 z8 z8 z6 ||[M:2/2] (D,4 G,4) | %52
w: ti- a|cor-|dis *|ve\- *|stri.||Qui *|
 (A,4 D,2 G,2 | F,2 D,2) G,4 | D,4 z2 F,2 | (E,2 C,2 D,4) | z2 (C,2 G,4) | (A,2 G,F, E,2 F,2 | %58
w: de\- * *|* * du-|cis, ve-|lut * *|o\- *|vem, * * * *|
 G,4 C,4) | D,8 | G,,8- | G,,8 |] %62
w: |Jo-|seph.||

